X:2284
T:Herring fleet 
C:P.Cain, Baldwin
C:Traditional
O:Isle of Man
Z:Clague collection
B:Kiaull Vannin #284 
N:See also KV 224,244,259,274,391,392.
M:3/4 
L:1/4 
Q:120 
K:D
d/c/|Bc d|e2 d/c/|de d/c/|B2 A/G/|AB c|de d/c/|d!fermata!B A|
BA G|F2 F|EF G|A2 B/c/|d!fermata!e d/c/|B!fermata!G E|F !fermata!E||

